X:1
T:Title
%%score { 1 | 2 }
L:1/8
M:4/4
K:G
V:1 treble nm="Grand Piano"
V:2 bass 
V:1
 z4 z2[Q:1/4=100] [B,DG]2 | [A,CF]3[K:bass] [G,CE] [F,CD]2[K:treble] [G,B,G]2 | %2
 [A,CF]3[K:bass] [G,CE] [F,CD]2[K:treble] [A,DF]2 | [G,DG]2 [DA]2 [DB]2 [^DA]2 | %4
[M:3/4] [EG]3 [A,EA] [A,DF]2 |[M:1/4] [A,DF]2 |[M:4/4] [DB]3 [FA] [EG]2 [EG]2 | %7
 [=FB]3 [CFA] [DFG]2 [CEG]2 | [CEc]2 [DB]2 A2 G2 |[M:3/4] F2 G2 A2 |[M:1/4] B2 | %11
[M:4/4] [DB]3 [DB] [DA]2 [Fd]2 | [EA]2 [EB]2 [Ec]2 [Cc]2 | [DB]3 [EA] [B,DG]2 [A,DF]2 | %14
[M:7/4] [B,DG]6 z2 z2 z4 |[M:4/4] [CEG]4 [G,B,DG]4 |] %16
V:2
 z4 z2 G,,2 | D,3 D, D,2 G,,2 | D,3 D, D,2 C,2 | B,,2 [A,,F,]2 [G,,G,]2 [B,,F,]2 | %4
[M:3/4] E,3 ^C, D,2 |[M:1/4] C,2 |[M:4/4] [B,,F,]3 [^D,B,] [E,B,]2 [E,G,]2 | [D,G,]3 C, B,,2 C,2 | %8
 A,,2 [B,,G,]2 [D,F,D]2 [E,A,^C]2 |[M:3/4] [D,A,D]2 [E,A,D]2 [F,A,D]2 |[M:1/4] [G,D]2 | %11
[M:4/4] [G,,G,]3 [B,,G,] [D,F,]2 [D,A,]2 | [C,A,]2 [B,,^G,]2 [A,,A,]2 [A,,A,]2 | %13
 [B,,G,]3 [C,E,] D,2 D,2 |[M:7/4] G,,6 z2 z2 z4 |[M:4/4] C,4 G,,4 |] %16

